X: 2310
M: 6/8
L: 1/8
K: D
uB |\
vA2vD uD2uE | F2E F2G | A2D D2E | F2E E2B |\
|: uA |\
vB2vc ud2uB | A2A f2e | d2B A2F | F2E E2A |\


